X: 2
T: Phil the Fluther's Ball v.2
P: piffero secondo a0650
O: George Carteris
%R: hornpipe, shottish
F: http://ancients.sudburymuster.org/mus/sng/pdf/flutherC0.pdf
Z: 2020 John Chambers <jc:trillian.mit.edu>
M: 2/4
L: 1/16
K: D
F>E |\
.D2A,2 .F2G>F | G>FG>A .F2A2 |\
(3DDD D>D F>FG>G | F>GF>D C>EF>E |\
.D2A,2 .F2G>F | G>FG>A F2G>A |
A2A>G A2G>F | G2A2 F2 :| A>A |\
.A2d2 .A2A2 | F>GG>D F>DA,2 |\
(3AAA (3AAA (3AAA (3AAA | F>AG>A F2A>A |
.A2D2 .A2A2 | F>GG>D F>DA,2 |\
F2F>E F2F>G | F>GF>E TA2F>E |\
.D2A,2 .F2G>F | G>FG>A .F2A2 |
(3DDD D>E F>FG>G | F>GF>D C>EF>E |\
.D2A,2 .F2G>F | G>FG>A F2G>A |\
A2A>G A2G>F | GA F>F-F2 |]

% %sep 1 1 200
% %center - - - - - - - - - -
% Whatever we want at the bottom of each set belongs here.
